X:1
T: Blair Athole
C:Alexander Walker
R:Reel
Q:232
K:Bm
M:4/4
L:1/8
|:A|FB B1/2B1/2B d2Bd|cA eA aA cA|FB B1/2B1/2B d2Bc|AF EC B,1/2B,1/2B, B,A|
FB B1/2B1/2B d2Bd|cA eA aA cA|FB B1/2B1/2B d2Bc|AF EC B,1/2B,1/2B, B,B|
FB Bc dB fB|EA AE cA eE|FB Bc de fb|af ec B1/2B1/2B BA|
FB Bc dB fB|EA AE cA eE|dB db cA ca|dB cA BB,B,:|
